X:9
T:Christmas Eve
R:air
S:O'Neill's
Z:John Walsh Dec 99
S:John Walsh <walsh:math.ubc.ca> irtrad-l 2001-12-7
M:C
Q:1/4=100
K:G
BA|G3 ED2 FG|A2 A2 Bdge|d3 c BAGA|B2 E2 E2 BA|
GEDE G2 GA|B2 d2 efge|d2 B2 A2 GA|B2 G2 G2||
Bc|d3 c BAGA|B2 d2 egfa|g3 ed3 B|A2 E2 EcBA|
G3 ED2 EG|A2 A2 Bdge|d3 c BAGA|B2 G2 G2 ||
